X: 31347
T: Paddy Mills' Fancy
R: reel
M: 4/4
K: Gmajor
|:DGGD GBAG|FGAB ~c3d|egeg fdBA|ABAB GFEF|
DGGD GBAG|FGAB ~c3d|egeg fdBA|1 AGFA G4:|2 AGFA G2Bd||
g2ag gfdc|B2AB G2AB|cAAe dcAG|E/F/GAB cdef|
g2ag gfdc|B2AB G2AB|cAAe dcAG|E/F/GAF g2gg|
g2ag gfdc|B2AB G2AB|c3A B2AG|FGAF GFEA|
DGGD GBAG|FGAB ~c3d|egeg fdBA|AGFA G4||

